public/topics/13.svg

<svg width="250" height="250" viewBox="0 0 250 250" fill="none" xmlns="http://www.w3.org/2000/svg">
<rect width="250" height="250" rx="30" fill="#990099"/>
<path d="M86.6 89.8C85.2667 115.933 84.6 136.733 84.6 152.2C84.6 160.2 84.8 167.8 85.2 175C86.2667 175.8 88.3333 176.2 91.4 176.2L96 176C97.8667 175.733 99.6 175.6 101.2 175.6C104.667 175.6 107.333 176.2 109.2 177.4C111.2 178.6 112.2 180.933 112.2 184.4C112.2 187.733 111.2 190.333 109.2 192.2C107.333 194.067 103.4 195 97.4 195C92.3333 195 86.2 194.6 79 193.8C77.2667 193.667 75.6 193.533 74 193.4C72.4 193.267 70.9333 193.2 69.6 193.2C62.2667 193.333 56.8 193.6 53.2 194C49.6 194.4 45.5333 194.6 41 194.6C36.8667 194.6 34.8 191.467 34.8 185.2C34.8 179.2 38.6667 176.2 46.4 176.2C47.6 176.2 49.5333 176.333 52.2 176.6C54.4667 177 56.8667 177.2 59.4 177.2C60.8667 177.2 62.0667 177.133 63 177C63.1333 168.067 63.6 155.067 64.4 138C65.2 118 65.6 103.2 65.6 93.6C64.9333 93.7333 62.6 94.6667 58.6 96.4C52.4667 99.4667 47.9333 101 45 101C43.4 101 41.9333 100.2 40.6 98.6C39.2667 96.8667 38.6 94.8667 38.6 92.6C38.6 90.3333 40 88.1333 42.8 86C45.6 83.8667 50.1333 81.0667 56.4 77.6C59.8667 75.8667 63.2 73.9333 66.4 71.8C67.2 71.2667 68.3333 70.7333 69.8 70.2C71.4 69.6667 72.6 69.4 73.4 69.4C76.8667 69.4 80 70.1333 82.8 71.6C85.7333 72.9333 87.2 74.7333 87.2 77L86.6 89.8ZM179.773 115C190.707 117.4 199.773 122.133 206.973 129.2C214.173 136.267 217.773 144.467 217.773 153.8C217.773 159.4 216.44 164.867 213.773 170.2C209.507 178.733 203.107 185.133 194.573 189.4C186.173 193.667 176.44 195.8 165.373 195.8C158.44 195.8 152.24 194.533 146.773 192C141.307 189.333 135.907 185.8 130.573 181.4C128.573 179.533 126.773 176.867 125.173 173.4C123.707 169.933 122.973 167.067 122.973 164.8C122.973 161.867 123.773 159.533 125.373 157.8C127.107 155.933 129.373 155 132.173 155C134.973 155 137.173 155.667 138.773 157C140.373 158.333 142.307 160.467 144.573 163.4C146.707 166.2 148.64 168.467 150.373 170.2C152.107 171.8 154.44 173.2 157.373 174.4C160.307 175.6 163.973 176.2 168.373 176.2C177.307 176.2 184.307 174 189.373 169.6C194.44 165.2 196.973 159 196.973 151C196.973 147.933 195.307 144.867 191.973 141.8C188.64 138.6 185.507 136.333 182.573 135C180.84 134.067 177.64 133.133 172.973 132.2C166.707 130.6 161.973 129.067 158.773 127.6C155.707 126 154.173 123.533 154.173 120.2C154.173 117.933 155.173 115.733 157.173 113.6C159.173 111.333 162.173 108.533 166.173 105.2C170.173 101.867 173.173 99.1333 175.173 97C177.173 94.7333 178.173 92.4667 178.173 90.2C175.64 89.5333 171.84 89.2 166.773 89.2C164.507 89.2 161.107 89.3333 156.573 89.6C152.573 89.8667 149.507 90 147.373 90C142.573 90 138.44 89.2 134.973 87.6C131.64 86 129.973 83.9333 129.973 81.4C129.973 78.6 130.24 76.4 130.773 74.8C131.307 73.0667 132.307 72 133.773 71.6C134.707 71.2 136.373 71 138.773 71C145.307 71 150.973 71.2 155.773 71.6C161.107 71.8667 165.173 72 167.973 72L184.573 71.8C198.173 71.8 204.973 75.0667 204.973 81.6C204.973 86.5333 202.44 92.1333 197.373 98.4C192.44 104.533 186.573 110.067 179.773 115Z" fill="white"/>
</svg>

<svg xmlns="http://www.w3.org/2000/svg" width="250" height="250" fill="none" viewBox="0 0 250 250"><rect width="250" height="250" fill="#909" rx="30"/><path fill="#fff" d="M86.6 89.8q-2 39.2-2 62.4 0 12 .6 22.8 1.6 1.2 6.2 1.2l4.6-.2q2.8-.4 5.2-.4 5.2 0 8 1.8 3 1.8 3 7 0 5-3 7.8-2.8 2.8-11.8 2.8-7.6 0-18.4-1.2a789 789 0 0 1-5-.4 54 54 0 0 0-4.4-.2q-11 .2-16.4.8t-12.2.6q-6.2 0-6.2-9.4 0-9 11.6-9 1.8 0 5.8.4 3.4.6 7.2.6 2.2 0 3.6-.2.2-13.4 1.4-39 1.2-30 1.2-44.4-1 .2-7 2.8Q49.4 101 45 101q-2.4 0-4.4-2.4-2-2.6-2-6t4.2-6.6 13.6-8.4a93 93 0 0 0 10-5.8q1.2-.8 3.4-1.6 2.4-.8 3.6-.8 5.2 0 9.4 2.2 4.4 2 4.4 5.4zm93.173 25.2q16.4 3.6 27.2 14.2t10.8 24.6q0 8.4-4 16.4-6.399 12.8-19.2 19.2-12.6 6.4-29.2 6.4-10.4 0-18.6-3.8-8.199-4-16.2-10.6-3-2.8-5.4-8-2.2-5.2-2.2-8.6 0-4.4 2.4-7 2.6-2.8 6.8-2.8t6.6 2 5.8 6.4q3.2 4.2 5.8 6.8 2.6 2.4 7 4.2t11 1.8q13.401 0 21-6.6t7.6-18.6q0-4.6-5-9.2-5-4.8-9.4-6.8-2.6-1.4-9.6-2.8-9.4-2.4-14.2-4.6-4.6-2.4-4.6-7.4 0-3.4 3-6.6 3-3.4 9-8.4t9-8.2q3-3.4 3-6.8-3.8-1-11.4-1-3.399 0-10.2.4-6 .4-9.2.4-7.2 0-12.4-2.4-5-2.4-5-6.2 0-4.2.8-6.6.801-2.6 3-3.2 1.4-.6 5-.6 9.8 0 17 .6 8 .4 12.2.4l16.6-.2q20.4 0 20.4 9.8 0 7.4-7.6 16.8-7.4 9.2-17.6 16.6"/></svg>
